; generated by PrusaSlicer 2.5.2+win64 on 2023-04-16 at 21:05:09 UTC


;
;

;
;
; 

; external perimeters extrusion width = 0.45mm
; perimeters extrusion width = 0.45mm
; infill extrusion width = 0.45mm
; solid infill extrusion width = 0.45mm
; top infill extrusion width = 0.40mm
; first layer extrusion width = 0.42mm

M73 P0 R56
M201 X2500 Y2500 Z400 E5000 ; sets maximum accelerations, mm/sec^2
M203 X180 Y180 Z12 E80 ; sets maximum feedrates, mm / sec
M204 P1250 R1250 T2500 ; sets acceleration (P, T) and retract acceleration (R), mm/sec^2
M205 X8.00 Y8.00 Z2.00 E10.00 ; sets the jerk limits, mm/sec
M205 S0 T0 ; sets the minimum extruding and travel feed rate, mm/sec
M107
;TYPE:Custom
M862.3 P "MINI" ; printer model check
G90 ; use absolute coordinates
M83 ; extruder relative mode
M104 S170 ; set extruder temp for bed leveling
M140 S60 ; set bed temp
M109 R170 ; wait for bed leveling temp
M190 S60 ; wait for bed temp
M204 T1250 ; set travel acceleration
G28 ; home all without mesh bed level
G29 ; mesh bed leveling 
M204 T2500 ; restore travel acceleration
M104 S215 ; set extruder temp
G92 E0
G1 Y-2 X179 F2400
G1 Z3 F720
M109 S215 ; wait for extruder temp

; intro line
G1 X170 F1000
G1 Z0.2 F720
G1 X110 E8 F900
G1 X40 E10 F700
G92 E0

M221 S95 ; set flow
G21 ; set units to millimeters
G90 ; use absolute coordinates
M83 ; use relative distances for extrusion
M900 K0.2 ; Filament gcode LA 1.5
; ; Filament gcode LA 1.0
M107
;LAYER_CHANGE
;Z:0.2
;HEIGHT:0.2
;BEFORE_LAYER_CHANGE
G92 E0.0
;0.2


G1 E-3.2 F4200
G1 Z.2 F720
;AFTER_LAYER_CHANGE
;0.2
G1 Z.4
G1 X43.496 Y54.357 F9000
G1 Z.2 F720
G1 E3.2 F2400
M204 P800
;TYPE:Skirt/Brim
;WIDTH:0.42
G1 F1200
G1 X44.482 Y53.788 E.03569
G1 X45.65 Y53.573 E.03725
G1 X134.66 Y53.593 E2.79085
G1 X135.76 Y53.888 E.03569
G1 X136.297 Y54.198 E.01946
G1 X136.943 Y54.796 E.02759
G1 X137.512 Y55.782 E.03569
G1 X137.727 Y56.95 E.03725
G1 X137.727 Y123.05 E2.07252
G1 X137.673 Y123.619 E.01793
G1 X137.412 Y124.46 E.02759
G1 X137.094 Y125.007 E.01986
G1 X136.504 Y125.643 E.02718
G1 X135.518 Y126.212 E.03569
G1 X134.35 Y126.427 E.03725
G1 X45.65 Y126.427 E2.78113
G1 X45.081 Y126.373 E.01792
G1 X44.24 Y126.112 E.02759
G1 X43.703 Y125.802 E.01946
G1 X43.057 Y125.204 E.02759
G1 X42.488 Y124.218 E.03569
G1 X42.273 Y123.05 E.03725
G1 X42.273 Y56.95 E2.07252
G1 X42.327 Y56.381 E.01793
G1 X42.588 Y55.54 E.02759
G1 X42.898 Y55.003 E.01946
G1 X43.455 Y54.401 E.02571
M204 P1000
; printing object Kitchen_Timer_FacePlate.stl id:0 copy 0
G1 E-2.24 F4200
;WIPE_START
G1 F7200
G1 X44.482 Y53.788 E-.6626
G1 X44.924 Y53.706 E-.2494
;WIPE_END
G1 E-.048 F4200
G1 Z.4 F720
G1 X127.773 Y74.768 F9000
G1 Z.2 F720
G1 E3.2 F2400
M204 P800
;TYPE:Perimeter
;WIDTH:0.419999
G1 F1200
G1 X127.811 Y74.793 E.00142
G1 X127.887 Y75.048 E.00837
G1 X127.92 Y75.712 E.02084
G1 X127.937 Y76.715 E.03143
G1 X127.937 Y88.737 E.37694
G1 X127.897 Y88.945 E.00664
M73 P1 R56
G1 X127.728 Y89.176 E.009
G1 X127.468 Y89.294 E.00894
G1 X119.87 Y89.302 E.23825
G1 X120.397 Y89.409 E.01689
G1 X121.19 Y89.663 E.02609
G1 X121.948 Y90.005 E.02609
G1 X122.662 Y90.432 E.02609
G1 X123.324 Y90.937 E.02609
G1 X123.923 Y91.514 E.02609
G1 X124.452 Y92.156 E.02609
G1 X124.905 Y92.854 E.02609
G1 X125.276 Y93.599 E.02609
G1 X125.559 Y94.381 E.02609
G1 X125.751 Y95.19 E.02609
G1 X125.849 Y96.016 E.02609
G1 X125.853 Y96.848 E.02609
G1 X125.762 Y97.675 E.02609
G1 X125.577 Y98.487 E.02609
G1 X125.301 Y99.271 E.02609
G1 X124.937 Y100.02 E.02609
G1 X124.49 Y100.721 E.02609
G1 X123.966 Y101.368 E.02609
G1 X123.372 Y101.95 E.02609
G1 X122.716 Y102.461 E.02609
G1 X122.005 Y102.894 E.02609
G1 X121.25 Y103.243 E.02609
G1 X120.46 Y103.504 E.02609
G1 X119.645 Y103.672 E.02609
G1 X118.817 Y103.747 E.02609
G1 X117.985 Y103.727 E.02609
G1 X117.161 Y103.613 E.02609
G1 X116.355 Y103.405 E.02609
G1 X115.579 Y103.106 E.02609
G1 X114.841 Y102.721 E.02609
G1 X114.152 Y102.255 E.02609
G1 X113.521 Y101.713 E.02609
G1 X112.956 Y101.102 E.02609
G1 X112.464 Y100.431 E.02609
G1 X112.052 Y99.709 E.02609
G1 X111.724 Y98.944 E.02609
G1 X111.486 Y98.147 E.02609
G1 X111.341 Y97.327 E.02609
G1 X111.29 Y96.497 E.02609
G1 X111.334 Y95.666 E.02609
G1 X111.472 Y94.846 E.02609
G1 X111.703 Y94.046 E.02609
G1 X112.023 Y93.279 E.02609
G1 X112.429 Y92.552 E.02609
G1 X112.915 Y91.877 E.02609
G1 X113.475 Y91.262 E.02609
G1 X114.101 Y90.714 E.02609
G1 X114.786 Y90.242 E.02609
G1 X115.52 Y89.85 E.02609
G1 X116.294 Y89.545 E.02609
;WIDTH:0.43529
G1 X117.096 Y89.322 E.02715
;WIDTH:0.437394
G1 X117.142 Y89.311 E.00157
G1 X116.327 Y89.302 E.02675
;WIDTH:0.419999
G1 X109.164 Y89.302 E.22459
G1 X108.946 Y89.259 E.00696
G1 X108.773 Y89.146 E.00646
G1 X108.612 Y88.861 E.01029
G1 X108.598 Y87.884 E.03063
G1 X108.598 Y76.719 E.35007
G1 X108.614 Y75.731 E.03097
G1 X108.648 Y75.052 E.02134
G1 X108.707 Y74.823 E.0074
G1 X108.889 Y74.7 E.00689
G1 X108.707 Y74.576 E.00689
G1 X108.648 Y74.351 E.00731
G1 X108.615 Y73.682 E.021
G1 X108.598 Y72.66 E.03203
G1 X108.598 Y60.029 E.39606
G1 X108.664 Y59.762 E.0086
G1 X108.773 Y59.619 E.00565
G1 X109.066 Y59.471 E.01027
G1 X109.164 Y59.463 E.00308
G1 X127.371 Y59.463 E.5709
G1 X127.589 Y59.506 E.00696
G1 X127.762 Y59.619 E.00646
G1 X127.923 Y59.904 E.01029
G1 X127.937 Y60.05 E.00458
G1 X127.937 Y72.66 E.39539
G1 X127.921 Y73.663 E.03143
G1 X127.887 Y74.351 E.0216
G1 X127.811 Y74.607 E.00837
G1 X127.665 Y74.7 E.00543
G1 X127.722 Y74.736 E.00213
M204 P1000
G1 X127.485 Y74.982 F9000
M204 P800
;TYPE:External perimeter
G1 F1200
G1 X127.544 Y75.731 E.02356
G1 X127.56 Y76.721 E.03103
G1 X127.56 Y88.737 E.37675
G1 X127.49 Y88.883 E.00509
G1 X127.371 Y88.925 E.00395
G1 X120.408 Y88.925 E.21833
;WIDTH:0.461397
G1 X120.216 Y88.946 E.00672
;WIDTH:0.502795
M73 P1 R55
G1 X120.024 Y88.967 E.00738
;WIDTH:0.544193
G1 X119.833 Y88.987 E.00804
;WIDTH:0.585591
G1 X119.641 Y89.008 E.00871
G1 X118.812 Y88.989 E.03743
;WIDTH:0.55841
G1 X117.986 Y88.995 E.03537
G1 X117.805 Y88.971 E.00785
;WIDTH:0.512273
G1 X117.623 Y88.948 E.00715
;WIDTH:0.466136
G1 X117.441 Y88.925 E.00645
;WIDTH:0.419999
G1 X116.327 Y88.925 E.03494
G1 X109.164 Y88.925 E.22459
G1 X109.034 Y88.873 E.00439
G1 X108.975 Y88.737 E.00466
G1 X108.975 Y76.721 E.37675
G1 X108.991 Y75.734 E.03094
G1 X109.025 Y75.066 E.02097
G1 X109.044 Y74.992 E.0024
G1 X109.213 Y74.888 E.00621
G1 X127.322 Y74.888 E.5678
G1 X127.433 Y74.952 E.00402
M204 P1000
G1 X127.885 Y74.962 F9000
G1 E-2.24 F4200
;WIPE_START
G1 F7200
G1 X127.544 Y75.731 E-.43603
G1 X127.558 Y76.59 E-.47597
;WIPE_END
G1 E-.048 F4200
G1 Z.4 F720
G1 X109.715 Y92.351 F9000
G1 Z.2 F720
G1 E3.2 F2400
M204 P800
;TYPE:Perimeter
G1 F1200
G1 X109.731 Y92.429 E.00249
G1 X109.731 Y96.372 E.12363
G1 X109.61 Y96.721 E.0116
G1 X109.371 Y96.899 E.00933
G1 X109.104 Y96.938 E.00846
G1 X105.222 Y96.938 E.12171
G1 X104.976 Y96.881 E.00794
G1 X104.836 Y96.785 E.0053
G1 X104.726 Y96.643 E.00565
G1 X104.657 Y96.259 E.01222
G1 X104.657 Y92.429 E.12009
G1 X104.741 Y92.132 E.00968
G1 X104.945 Y91.936 E.00886
G1 X105.222 Y91.863 E.009
G1 X109.165 Y91.863 E.12363
G1 X109.365 Y91.9 E.00637
G1 X109.53 Y91.996 E.00598
G1 X109.683 Y92.201 E.00801
G1 X109.702 Y92.293 E.00294
M204 P1000
G1 X109.354 Y92.429 F9000
M204 P800
;TYPE:External perimeter
G1 F1200
G1 X109.354 Y96.374 E.1237
G1 X109.299 Y96.505 E.00443
G1 X109.234 Y96.548 E.00245
G1 X108.699 Y96.56 E.01679
G1 X105.222 Y96.56 E.109
G1 X105.094 Y96.51 E.00434
G1 X105.034 Y96.372 E.00471
G1 X105.034 Y92.429 E.12363
G1 X105.101 Y92.285 E.00498
G1 X105.222 Y92.24 E.00406
G1 X109.165 Y92.24 E.12363
G1 X109.287 Y92.285 E.00405
G1 X109.328 Y92.375 E.00311
M204 P1000
G1 X109.74 Y92.533 F9000
G1 E-2.24 F4200
;WIPE_START
G1 F7200
G1 X109.339 Y94.02 E-.912
;WIPE_END
G1 E-.048 F4200
G1 Z.4 F720
G1 X112.37 Y93.426 F9000
G1 Z.2 F720
G1 E3.2 F2400
M204 P800
G1 F1200
G1 X112.757 Y92.738 E.02474
G1 X113.22 Y92.099 E.02474
G1 X113.753 Y91.517 E.02474
G1 X114.348 Y90.999 E.02474
G1 X114.999 Y90.553 E.02474
G1 X115.696 Y90.184 E.02474
G1 X116.431 Y89.896 E.02474
G1 X117.193 Y89.694 E.02474
G1 X117.493 Y89.65 E.00949
;WIDTH:0.466136
G1 X117.66 Y89.603 E.0061
;WIDTH:0.512273
G1 X117.827 Y89.557 E.00677
;WIDTH:0.55841
G1 X117.994 Y89.51 E.00743
G1 X118.761 Y89.493 E.0329
;WIDTH:0.581173
G1 X119.556 Y89.543 E.03565
G1 X119.748 Y89.602 E.00897
;WIDTH:0.54088
G1 X119.939 Y89.661 E.0083
;WIDTH:0.500586
G1 X120.131 Y89.72 E.00763
;WIDTH:0.460293
G1 X120.323 Y89.779 E.00696
;WIDTH:0.419999
G1 X121.073 Y90.022 E.02474
G1 X121.791 Y90.348 E.02474
G1 X122.468 Y90.755 E.02474
G1 X123.093 Y91.235 E.02474
G1 X123.66 Y91.784 E.02474
G1 X124.16 Y92.394 E.02474
G1 X124.588 Y93.057 E.02474
G1 X124.937 Y93.765 E.02474
G1 X125.203 Y94.508 E.02474
G1 X125.383 Y95.276 E.02474
G1 X125.474 Y96.059 E.02474
G1 X125.476 Y96.848 E.02474
G1 X125.387 Y97.632 E.02474
G1 X125.21 Y98.401 E.02474
G1 X124.946 Y99.145 E.02474
G1 X124.599 Y99.853 E.02474
G1 X124.173 Y100.518 E.02474
G1 X123.675 Y101.129 E.02474
G1 X123.11 Y101.68 E.02474
G1 X122.486 Y102.163 E.02474
G1 X121.811 Y102.571 E.02474
G1 X121.093 Y102.9 E.02474
G1 X120.343 Y103.145 E.02474
G1 X119.57 Y103.303 E.02474
G1 X118.784 Y103.372 E.02474
G1 X117.996 Y103.35 E.02474
G1 X117.215 Y103.239 E.02474
G1 X116.451 Y103.04 E.02474
G1 X115.716 Y102.755 E.02474
G1 X114.999 Y102.377 E.02541
G1 X114.365 Y101.943 E.02406
G1 X113.768 Y101.428 E.02474
G1 X113.234 Y100.847 E.02474
G1 X112.769 Y100.21 E.02474
G1 X112.38 Y99.523 E.02474
G1 X112.072 Y98.797 E.02474
G1 X111.848 Y98.04 E.02474
G1 X111.713 Y97.263 E.02474
G1 X111.666 Y96.475 E.02474
G1 X111.71 Y95.688 E.02474
G1 X111.843 Y94.91 E.02474
G1 X112.064 Y94.153 E.02474
G1 X112.347 Y93.481 E.02286
M204 P1000
G1 X112.147 Y93.094 F9000
G1 E-2.24 F4200
;WIPE_START
G1 F7200
G1 X112.757 Y92.738 E-.47026
G1 X113.22 Y92.099 E-.43724
G1 X113.226 Y92.093 E-.0045
;WIPE_END
G1 E-.048 F4200
G1 Z.4 F720
G1 X117.142 Y89.311 F9000
G1 Z.2 F720
G1 E3.2 F2400
M204 P800
;TYPE:Perimeter
;WIDTH:0.437394
G1 F1200
G1 X117.441 Y89.29 E.00983
M204 P1000
G1 E-2.24 F4200
;WIPE_START
G1 F7200
G1 X117.142 Y89.311 E-.16602
;WIPE_END
G1 E-.79398 F4200
G1 Z.4 F720
G1 X102.153 Y91.77 F9000
G1 Z.2 F720
G1 E3.2 F2400
M204 P800
;WIDTH:0.419999
G1 F1200
G1 X102.328 Y91.812 E.00566
G1 X102.468 Y91.911 E.00538
G1 X102.574 Y92.054 E.00559
G1 X102.639 Y92.429 E.01192
G1 X102.639 Y96.259 E.12009
G1 X102.549 Y96.565 E.00999
G1 X102.341 Y96.757 E.00887
G1 X102.073 Y96.825 E.00867
G1 X98.13 Y96.825 E.12363
G1 X97.912 Y96.781 E.00696
G1 X97.74 Y96.669 E.00646
G1 X97.578 Y96.383 E.01029
G1 X97.564 Y96.259 E.00392
G1 X97.564 Y92.316 E.12363
G1 X97.639 Y92.036 E.00911
G1 X97.814 Y91.847 E.00806
G1 X98.057 Y91.755 E.00816
G1 X98.13 Y91.751 E.00228
G1 X102.094 Y91.756 E.12429
M204 P1000
G1 X102.073 Y92.128 F9000
M204 P800
;TYPE:External perimeter
G1 F1200
G1 X102.205 Y92.181 E.00446
G1 X102.261 Y92.316 E.00459
G1 X102.261 Y96.259 E.12363
G1 X102.191 Y96.406 E.0051
G1 X102.073 Y96.448 E.00394
G1 X98.13 Y96.448 E.12363
G1 X98 Y96.396 E.00439
G1 X97.941 Y96.259 E.00466
G1 X97.941 Y92.316 E.12363
G1 X98.007 Y92.173 E.00493
G1 X98.13 Y92.128 E.00412
G1 X102.013 Y92.128 E.12175
M204 P1000
G1 X102.173 Y92.027 F9000
G1 E-2.24 F4200
;WIPE_START
G1 F7200
G1 X102.205 Y92.181 E-.11026
G1 X102.261 Y92.316 E-.08119
G1 X102.261 Y93.617 E-.72055
;WIPE_END
G1 E-.048 F4200
G1 Z.4 F720
G1 X99.719 Y99.82 F9000
G1 Z.2 F720
G1 E3.2 F2400
M204 P800
;TYPE:Perimeter
G1 F1200
G1 X99.862 Y99.849 E.00459
G1 X100.034 Y99.958 E.00636
G1 X100.192 Y100.214 E.00944
G1 X100.214 Y101.159 E.02963
G1 X100.214 Y120.779 E.61518
G1 X100.191 Y120.938 E.00502
G1 X100.101 Y121.119 E.00634
G1 X99.915 Y121.278 E.00769
G1 X99.648 Y121.345 E.0086
G1 X47.97 Y121.345 E1.62034
G1 X47.74 Y121.296 E.00738
G1 X47.562 Y121.171 E.00679
G1 X47.413 Y120.877 E.01035
G1 X47.404 Y100.372 E.64291
G1 X47.471 Y100.106 E.0086
G1 X47.631 Y99.92 E.00769
G1 X47.812 Y99.829 E.00634
G1 X47.97 Y99.807 E.00502
G1 X99.66 Y99.809 E1.6207
M204 P1000
G1 X99.648 Y100.184 F9000
M204 P800
;TYPE:External perimeter
G1 F1200
G1 X99.777 Y100.234 E.00432
G1 X99.837 Y100.372 E.00472
G1 X99.837 Y120.779 E.63984
G1 X99.799 Y120.892 E.00374
G1 X99.648 Y120.968 E.00529
G1 X47.97 Y120.968 E1.62034
G1 X47.834 Y120.91 E.00463
G1 X47.781 Y120.779 E.00442
G1 X47.781 Y100.372 E.63984
G1 X47.857 Y100.221 E.00529
G1 X47.97 Y100.184 E.00374
G1 X99.588 Y100.184 E1.61846
M204 P1000
G1 X99.745 Y100.085 F9000
G1 E-2.24 F4200
;WIPE_START
G1 F7200
G1 X99.777 Y100.234 E-.10806
G1 X99.837 Y100.372 E-.08348
G1 X99.837 Y101.672 E-.72046
;WIPE_END
G1 E-.048 F4200
G1 Z.4 F720
G1 X65.075 Y87.396 F9000
G1 Z.2 F720
G1 E3.2 F2400
M204 P800
;TYPE:Perimeter
G1 F1200
G1 X65.142 Y87.458 E.00286
G1 X65.23 Y87.728 E.00891
G1 X65.231 Y91.704 E.12466
G1 X65.177 Y91.944 E.00769
G1 X65.028 Y92.138 E.00767
G1 X64.763 Y92.261 E.00919
G1 X64.665 Y92.27 E.00308
G1 X60.722 Y92.27 E.12363
G1 X60.434 Y92.191 E.00936
G1 X60.246 Y92.009 E.00821
G1 X60.156 Y91.704 E.00996
G1 X60.156 Y87.761 E.12363
G1 X60.219 Y87.502 E.00836
G1 X60.407 Y87.292 E.00885
G1 X60.637 Y87.202 E.00774
G1 X60.722 Y87.196 E.00267
M73 P2 R55
G1 X64.665 Y87.196 E.12363
G1 X64.932 Y87.263 E.00864
G1 X65.031 Y87.355 E.00424
M204 P1000
G1 X64.812 Y87.643 F9000
M204 P800
;TYPE:External perimeter
G1 F1200
G1 X64.854 Y87.761 E.00393
G1 X64.854 Y91.704 E.12363
G1 X64.786 Y91.849 E.005
G1 X64.665 Y91.893 E.00404
G1 X60.722 Y91.893 E.12363
G1 X60.58 Y91.828 E.00491
G1 X60.534 Y91.704 E.00414
G1 X60.534 Y87.761 E.12363
G1 X60.594 Y87.623 E.00473
G1 X60.722 Y87.573 E.00432
G1 X64.665 Y87.573 E.12363
G1 X64.758 Y87.617 E.00322
M204 P1000
G1 X64.934 Y87.616 F9000
G1 E-2.24 F4200
;WIPE_START
G1 F7200
G1 X64.854 Y87.761 E-.09589
G1 X64.854 Y89.234 E-.81611
;WIPE_END
G1 E-.048 F4200
G1 Z.4 F720
G1 X63.529 Y68.475 F9000
G1 Z.2 F720
G1 E3.2 F2400
M204 P800
;TYPE:Perimeter
G1 F1200
G1 X63.432 Y68.496 E.00309
G1 X49.989 Y68.496 E.42149
G1 X49.772 Y68.452 E.00696
G1 X49.537 Y68.27 E.00933
G1 X49.432 Y68.028 E.00826
G1 X49.424 Y67.93 E.00308
G1 X49.424 Y61.487 E.20201
G1 X49.514 Y61.181 E.01001
G1 X49.715 Y60.993 E.00865
G1 X49.989 Y60.922 E.00887
G1 X63.432 Y60.922 E.42149
G1 X63.591 Y60.944 E.00502
G1 X63.842 Y61.097 E.00922
G1 X63.967 Y61.304 E.00758
G1 X63.998 Y61.487 E.00583
G1 X63.998 Y67.93 E.20201
G1 X63.928 Y68.204 E.00885
G1 X63.731 Y68.41 E.00895
G1 X63.586 Y68.457 E.00479
M204 P1000
G1 X63.432 Y68.119 F9000
M204 P800
;TYPE:External perimeter
G1 F1200
G1 X49.989 Y68.119 E.42149
G1 X49.839 Y68.043 E.00529
G1 X49.801 Y67.93 E.00374
G1 X49.801 Y61.487 E.20201
G1 X49.862 Y61.348 E.00477
G1 X49.989 Y61.299 E.00427
G1 X63.485 Y61.306 E.42315
G1 X63.595 Y61.392 E.00436
G1 X63.621 Y61.487 E.00311
G1 X63.621 Y67.93 E.20201
G1 X63.557 Y68.072 E.00486
G1 X63.488 Y68.098 E.0023
M204 P1000
G1 X63.329 Y68.505 F9000
G1 E-2.24 F4200
;WIPE_START
G1 F7200
G1 X61.843 Y68.1 E-.912
;WIPE_END
G1 E-.048 F4200
G1 Z.4 F720
G1 X109.044 Y74.407 F9000
G1 Z.2 F720
G1 E3.2 F2400
M204 P800
G1 F1200
G1 X108.997 Y73.787 E.01951
G1 X108.975 Y72.663 E.03523
G1 X108.975 Y60.029 E.39616
G1 X109.034 Y59.892 E.00466
G1 X109.164 Y59.84 E.00439
G1 X127.371 Y59.84 E.5709
G1 X127.501 Y59.892 E.00439
G1 X127.555 Y59.987 E.00343
G1 X127.56 Y60.05 E.00197
G1 X127.56 Y72.663 E.39548
G1 X127.544 Y73.657 E.03115
G1 X127.51 Y74.332 E.0212
G1 X127.485 Y74.417 E.00279
G1 X127.322 Y74.511 E.0059
G1 X109.213 Y74.511 E.5678
G1 X109.095 Y74.439 E.00433
M204 P1000
G1 X108.645 Y74.426 F9000
G1 E-2.24 F4200
;WIPE_START
G1 F7200
G1 X108.997 Y73.787 E-.36534
G1 X108.978 Y72.8 E-.54666
;WIPE_END
G1 E-.048 F4200
G1 Z.4 F720
G1 X134.512 Y56.826 F9000
G1 Z.2 F720
G1 E3.2 F2400
M204 P800
;TYPE:Perimeter
G1 F1200
G1 X134.563 Y57.02 E.0063
G1 X134.563 Y122.998 E2.0687
G1 X134.496 Y123.196 E.00654
G1 X134.298 Y123.263 E.00654
G1 X45.702 Y123.263 E2.77789
G1 X45.504 Y123.196 E.00654
G1 X45.437 Y122.998 E.00654
G1 X45.437 Y57.002 E2.06928
G1 X45.504 Y56.804 E.00654
G1 X45.702 Y56.737 E.00654
G1 X134.28 Y56.737 E2.77731
G1 X134.377 Y56.747 E.00305
G1 X134.46 Y56.796 E.00302
M204 P1000
G1 X134.765 Y56.535 F9000
M204 P800
;TYPE:External perimeter
G1 F1200
G1 X134.887 Y56.727 E.00715
