; generated by PrusaSlicer 2.5.2+win64 on 2023-04-16 at 08:16:05 UTC


;
;

;
;
; 

; external perimeters extrusion width = 0.45mm
; perimeters extrusion width = 0.45mm
; infill extrusion width = 0.45mm
; solid infill extrusion width = 0.45mm
; top infill extrusion width = 0.40mm
; first layer extrusion width = 0.42mm

M73 P0 R116
M201 X2500 Y2500 Z400 E5000 ; sets maximum accelerations, mm/sec^2
M203 X180 Y180 Z12 E80 ; sets maximum feedrates, mm / sec
M204 P1250 R1250 T2500 ; sets acceleration (P, T) and retract acceleration (R), mm/sec^2
M205 X8.00 Y8.00 Z2.00 E10.00 ; sets the jerk limits, mm/sec
M205 S0 T0 ; sets the minimum extruding and travel feed rate, mm/sec
M107
;TYPE:Custom
M862.3 P "MINI" ; printer model check
G90 ; use absolute coordinates
M83 ; extruder relative mode
M104 S170 ; set extruder temp for bed leveling
M140 S60 ; set bed temp
M109 R170 ; wait for bed leveling temp
M190 S60 ; wait for bed temp
M204 T1250 ; set travel acceleration
G28 ; home all without mesh bed level
G29 ; mesh bed leveling 
M204 T2500 ; restore travel acceleration
M104 S215 ; set extruder temp
G92 E0
G1 Y-2 X179 F2400
G1 Z3 F720
M109 S215 ; wait for extruder temp

; intro line
G1 X170 F1000
G1 Z0.2 F720
G1 X110 E8 F900
G1 X40 E10 F700
G92 E0

M221 S95 ; set flow
G21 ; set units to millimeters
G90 ; use absolute coordinates
M83 ; use relative distances for extrusion
M900 K0.2 ; Filament gcode LA 1.5
; ; Filament gcode LA 1.0
M107
;LAYER_CHANGE
;Z:0.2
;HEIGHT:0.2
;BEFORE_LAYER_CHANGE
G92 E0.0
;0.2


M73 P0 R115
G1 E-3.2 F4200
G1 Z.2 F720
;AFTER_LAYER_CHANGE
;0.2
G1 Z.4
G1 X43.496 Y54.357 F9000
G1 Z.2 F720
G1 E3.2 F2400
M204 P800
;TYPE:Skirt/Brim
;WIDTH:0.42
G1 F1200
G1 X44.482 Y53.788 E.03569
G1 X45.65 Y53.573 E.03725
G1 X134.66 Y53.593 E2.79085
G1 X135.76 Y53.888 E.03569
G1 X136.504 Y54.357 E.02759
G1 X136.943 Y54.796 E.01946
G1 X137.512 Y55.782 E.03569
G1 X137.727 Y56.95 E.03725
G1 X137.727 Y123.05 E2.07252
G1 X137.673 Y123.619 E.01793
G1 X137.412 Y124.46 E.02759
G1 X136.943 Y125.204 E.02759
G1 X136.504 Y125.643 E.01946
G1 X135.518 Y126.212 E.03569
G1 X134.35 Y126.427 E.03725
G1 X45.65 Y126.427 E2.78113
G1 X45.081 Y126.373 E.01792
G1 X44.24 Y126.112 E.02759
G1 X43.496 Y125.643 E.02759
G1 X43.057 Y125.204 E.01946
G1 X42.488 Y124.218 E.03569
G1 X42.273 Y123.05 E.03725
G1 X42.273 Y56.95 E2.07252
G1 X42.327 Y56.381 E.01793
G1 X42.588 Y55.54 E.02759
G1 X42.898 Y55.003 E.01946
G1 X43.455 Y54.401 E.02571
M204 P1000
; printing object Kitchen_Timer_Enclosure.stl id:0 copy 0
G1 E-2.24 F4200
;WIPE_START
G1 F7200
G1 X44.482 Y53.788 E-.66261
G1 X44.924 Y53.706 E-.24939
;WIPE_END
G1 E-.048 F4200
G1 Z.4 F720
G1 X45.504 Y56.804 F9000
G1 Z.2 F720
G1 E3.2 F2400
M204 P800
;TYPE:Perimeter
;WIDTH:0.419999
G1 F1200
G1 X45.702 Y56.737 E.00654
G1 X134.28 Y56.737 E2.77731
G1 X134.377 Y56.747 E.00305
G1 X134.512 Y56.826 E.0049
G1 X134.563 Y57.02 E.0063
G1 X134.563 Y122.998 E2.0687
G1 X134.496 Y123.196 E.00654
G1 X134.298 Y123.263 E.00654
G1 X45.702 Y123.263 E2.77789
G1 X45.504 Y123.196 E.00654
G1 X45.437 Y122.998 E.00654
G1 X45.437 Y57.002 E2.06928
G1 X45.485 Y56.861 E.00465
M204 P1000
G1 X45.357 Y56.442 F9000
M204 P800
;TYPE:External perimeter
G1 F1200
G1 X45.677 Y56.36 E.01036
G1 X134.28 Y56.36 E2.77808
G1 X134.502 Y56.384 E.007
G1 X134.765 Y56.535 E.00952
G1 X134.887 Y56.727 E.00715
G1 X134.94 Y57.02 E.00932
G1 X134.94 Y123.023 E2.06947
G1 X134.858 Y123.343 E.01036
G1 X134.643 Y123.558 E.00952
G1 X134.323 Y123.64 E.01036
G1 X45.677 Y123.64 E2.77944
G1 X45.357 Y123.558 E.01036
G1 X45.142 Y123.343 E.00952
G1 X45.06 Y123.023 E.01036
G1 X45.06 Y56.977 E2.07083
G1 X45.142 Y56.657 E.01036
G1 X45.314 Y56.485 E.00764
M204 P1000
G1 X45.643 Y56.608 F9000
G1 E-2.24 F4200
;WIPE_START
G1 F7200
G1 X45.677 Y56.36 E-.21242
G1 X46.939 Y56.36 E-.69958
;WIPE_END
G1 E-.048 F4200
G1 Z.4 F720
G1 X101.866 Y67.37 F9000
G1 Z.2 F720
G1 E3.2 F2400
M204 P800
;TYPE:Perimeter
G1 F1200
G1 X101.431 Y67.309 E.01379
G1 X100.917 Y67.118 E.01719
G1 X100.455 Y66.822 E.01719
G1 X100.069 Y66.433 E.01719
G1 X99.775 Y65.97 E.01719
G1 X99.587 Y65.455 E.01719
G1 X99.515 Y64.911 E.01719
G1 X99.561 Y64.365 E.01719
G1 X99.724 Y63.841 E.01719
G1 X99.995 Y63.365 E.01719
G1 X100.362 Y62.957 E.01719
G1 X100.809 Y62.639 E.0172
G1 X101.363 Y62.413 E.01877
G1 X101.943 Y62.315 E.01845
G1 X102.52 Y62.358 E.01815
G1 X103.045 Y62.518 E.01719
G1 X103.523 Y62.786 E.01719
G1 X103.933 Y63.151 E.01719
G1 X104.254 Y63.595 E.01719
G1 X104.472 Y64.099 E.01719
G1 X104.577 Y64.637 E.01719
G1 X104.57 Y65.148 E.01603
G1 X104.454 Y65.665 E.01662
G1 X104.243 Y66.127 E.01593
G1 X103.933 Y66.549 E.01642
G1 X103.523 Y66.914 E.01719
G1 X103.045 Y67.182 E.01719
G1 X102.52 Y67.342 E.01719
G1 X101.926 Y67.378 E.01868
M204 P1000
G1 X101.913 Y67.006 F9000
M204 P800
;TYPE:External perimeter
G1 F1200
G1 X101.452 Y66.926 E.01465
G1 X101.02 Y66.749 E.01465
G1 X100.636 Y66.483 E.01465
G1 X100.318 Y66.141 E.01465
G1 X100.081 Y65.739 E.01465
G1 X99.936 Y65.294 E.01465
G1 X99.89 Y64.83 E.01465
G1 X99.936 Y64.406 E.01338
G1 X100.098 Y63.924 E.01592
G1 X100.343 Y63.526 E.01465
G1 X100.667 Y63.19 E.01465
G1 X101.06 Y62.93 E.01476
G1 X101.53 Y62.757 E.01572
G1 X101.953 Y62.692 E.01343
G1 X102.42 Y62.722 E.01465
G1 X102.869 Y62.851 E.01465
G1 X103.279 Y63.073 E.01465
G1 X103.632 Y63.379 E.01465
G1 X103.911 Y63.754 E.01465
G1 X104.104 Y64.18 E.01465
G1 X104.2 Y64.637 E.01465
G1 X104.195 Y65.104 E.01465
G1 X104.091 Y65.559 E.01465
G1 X103.89 Y65.981 E.01465
G1 X103.604 Y66.35 E.01465
G1 X103.245 Y66.649 E.01465
G1 X102.831 Y66.864 E.01465
G1 X102.379 Y66.985 E.01465
G1 X101.973 Y67.003 E.01277
M204 P1000
G1 X101.691 Y67.339 F9000
G1 E-2.24 F4200
;WIPE_START
G1 F7200
G1 X101.452 Y66.926 E-.29143
G1 X101.02 Y66.749 E-.25888
G1 X100.636 Y66.483 E-.25886
G1 X100.51 Y66.347 E-.10282
;WIPE_END
G1 E-.048 F4200
G1 Z.4 F720
G1 X86.031 Y64.678 F9000
G1 Z.2 F720
G1 E3.2 F2400
M204 P800
;TYPE:Perimeter
G1 F1200
G1 X86.037 Y76.644 E.37518
G1 X86.001 Y76.844 E.00638
G1 X85.836 Y77.076 E.00893
G1 X85.586 Y77.198 E.00871
G1 X85.471 Y77.209 E.00361
G1 X68.029 Y77.209 E.54691
G1 X67.765 Y77.144 E.0085
M73 P0 R114
G1 X67.555 Y76.952 E.00894
G1 X67.463 Y76.644 E.01009
G1 X67.463 Y64.701 E.37446
G1 X67.516 Y64.461 E.00769
G1 X67.665 Y64.267 E.00767
G1 X67.931 Y64.144 E.00919
G1 X68.029 Y64.135 E.00308
G1 X85.471 Y64.135 E.54691
G1 X85.679 Y64.175 E.00663
M73 P1 R114
G1 X85.91 Y64.344 E.00898
G1 X86.03 Y64.618 E.00937
M204 P1000
G1 X85.66 Y64.701 F9000
M204 P800
;TYPE:External perimeter
G1 F1200
G1 X85.66 Y76.644 E.37446
G1 X85.648 Y76.71 E.00213
G1 X85.534 Y76.822 E.00499
G1 X68.025 Y76.832 E.54897
G1 X67.882 Y76.763 E.00499
G1 X67.84 Y76.644 E.00396
G1 X67.84 Y64.701 E.37446
G1 X67.907 Y64.556 E.005
G1 X68.029 Y64.512 E.00404
G1 X85.471 Y64.512 E.54691
G1 X85.618 Y64.582 E.00508
G1 X85.64 Y64.644 E.00207
M204 P1000
G1 X86.046 Y64.804 F9000
G1 E-2.24 F4200
;WIPE_START
G1 F7200
G1 X85.643 Y66.29 E-.912
;WIPE_END
G1 E-.048 F4200
G1 Z.4 F720
G1 X54.517 Y94.38 F9000
G1 Z.2 F720
G1 E3.2 F2400
M204 P800
;TYPE:Perimeter
G1 F1200
G1 X54.52 Y94.861 E.01508
G1 X54.42 Y95.367 E.01618
G1 X54.206 Y95.851 E.0166
G1 X53.885 Y96.296 E.01719
G1 X53.475 Y96.661 E.01719
G1 X52.997 Y96.929 E.01719
G1 X52.473 Y97.088 E.01719
G1 X51.926 Y97.131 E.01719
G1 X51.383 Y97.056 E.0172
G1 X50.825 Y96.838 E.01877
G1 X50.314 Y96.489 E.01939
G1 X49.947 Y96.082 E.01719
G1 X49.676 Y95.606 E.01719
G1 X49.518 Y95.118 E.01605
G1 X49.464 Y94.597 E.01645
G1 X49.54 Y93.992 E.01911
G1 X49.727 Y93.477 E.01719
G1 X50.021 Y93.014 E.01719
G1 X50.408 Y92.625 E.01719
G1 X50.879 Y92.324 E.01753
G1 X51.423 Y92.131 E.01811
G1 X51.926 Y92.062 E.01591
G1 X52.473 Y92.105 E.01719
G1 X52.963 Y92.248 E.01602
G1 X53.426 Y92.495 E.01645
G1 X53.824 Y92.83 E.01629
G1 X54.143 Y93.237 E.01623
G1 X54.385 Y93.729 E.01719
G1 X54.516 Y94.32 E.01896
M204 P1000
G1 X54.152 Y94.387 F9000
M204 P800
;TYPE:External perimeter
G1 F1200
G1 X54.139 Y94.89 E.01578
G1 X54.043 Y95.306 E.01337
G1 X53.864 Y95.693 E.01338
G1 X53.557 Y96.097 E.01592
G1 X53.198 Y96.396 E.01465
G1 X52.783 Y96.611 E.01465
G1 X52.332 Y96.732 E.01465
G1 X51.865 Y96.753 E.01465
G1 X51.401 Y96.671 E.01476
G1 X50.939 Y96.473 E.01578
G1 X50.588 Y96.23 E.01337
G1 X50.27 Y95.888 E.01465
G1 X50.033 Y95.485 E.01465
G1 X49.888 Y95.041 E.01465
G1 X49.842 Y94.576 E.01465
G1 X49.897 Y94.112 E.01465
G1 X50.05 Y93.671 E.01465
G1 X50.295 Y93.273 E.01465
G1 X50.619 Y92.937 E.01465
G1 X51.012 Y92.677 E.01476
G1 X51.484 Y92.503 E.01579
G1 X51.906 Y92.439 E.01337
G1 X52.372 Y92.468 E.01465
G1 X52.821 Y92.597 E.01465
G1 X53.231 Y92.82 E.01465
G1 X53.585 Y93.126 E.01465
G1 X53.864 Y93.5 E.01465
G1 X54.056 Y93.926 E.01465
G1 X54.14 Y94.328 E.01288
M204 P1000
G1 X54.515 Y94.556 F9000
G1 E-2.24 F4200
;WIPE_START
G1 F7200
G1 X54.139 Y94.89 E-.31144
G1 X54.043 Y95.306 E-.23622
G1 X53.864 Y95.693 E-.2364
G1 X53.724 Y95.877 E-.12793
;WIPE_END
G1 E-.048 F4200
G1 Z.4 F720
G1 X126.518 Y103.494 F9000
G1 Z.2 F720
G1 E3.2 F2400
M204 P800
;TYPE:Perimeter
G1 F1200
G1 X126.963 Y103.313 E.01508
G1 X127.509 Y103.216 E.01739
G1 X128.058 Y103.245 E.01723
G1 X128.645 Y103.418 E.0192
G1 X129.123 Y103.686 E.01719
G1 X129.533 Y104.051 E.01719
G1 X129.854 Y104.495 E.01719
G1 X130.072 Y104.998 E.01719
G1 X130.177 Y105.537 E.01719
G1 X130.168 Y106.061 E.01644
G1 X130.033 Y106.617 E.01796
G1 X129.791 Y107.109 E.01719
G1 X129.448 Y107.538 E.01719
G1 X129.022 Y107.883 E.01719
G1 X128.532 Y108.128 E.01719
G1 X128 Y108.262 E.01719
G1 X127.452 Y108.278 E.01719
G1 X126.913 Y108.176 E.01719
G1 X126.409 Y107.961 E.01719
G1 X125.991 Y107.67 E.01596
G1 X125.641 Y107.301 E.01595
G1 X125.375 Y106.87 E.01588
G1 X125.165 Y106.264 E.02012
G1 X125.112 Y105.759 E.01591
G1 X125.164 Y105.242 E.0163
G1 X125.324 Y104.741 E.01648
G1 X125.595 Y104.265 E.01719
G1 X125.962 Y103.857 E.01719
G1 X126.462 Y103.517 E.01896
M204 P1000
G1 X126.66 Y103.83 F9000
M204 P800
;TYPE:External perimeter
G1 F1200
G1 X127.132 Y103.656 E.01578
G1 X127.553 Y103.592 E.01337
G1 X128.02 Y103.622 E.01465
G1 X128.469 Y103.751 E.01465
G1 X128.879 Y103.973 E.01465
G1 X129.232 Y104.279 E.01465
G1 X129.511 Y104.654 E.01465
G1 X129.704 Y105.08 E.01465
G1 X129.8 Y105.537 E.01465
G1 X129.795 Y106.004 E.01465
G1 X129.691 Y106.459 E.01465
G1 X129.49 Y106.881 E.01465
G1 X129.204 Y107.25 E.01465
G1 X128.845 Y107.549 E.01465
G1 X128.431 Y107.764 E.01465
G1 X127.979 Y107.885 E.01465
G1 X127.513 Y107.906 E.01465
G1 X127.052 Y107.826 E.01465
G1 X126.62 Y107.649 E.01465
G1 X126.236 Y107.383 E.01465
G1 X125.918 Y107.041 E.01465
G1 X125.681 Y106.639 E.01465
G1 X125.536 Y106.194 E.01465
G1 X125.49 Y105.73 E.01465
G1 X125.545 Y105.266 E.01465
G1 X125.698 Y104.824 E.01465
G1 X125.943 Y104.426 E.01465
G1 X126.267 Y104.09 E.01465
G1 X126.61 Y103.864 E.01288
M204 P1000
G1 X126.683 Y103.431 F9000
G1 E-2.24 F4200
;WIPE_START
G1 F7200
G1 X127.132 Y103.656 E-.31144
G1 X127.553 Y103.592 E-.23623
G1 X128.02 Y103.622 E-.25887
G1 X128.202 Y103.674 E-.10546
;WIPE_END
G1 E-.048 F4200
G1 Z.4 F720
G1 X133.677 Y56.85 F9000
G1 Z.2 F720
G1 E3.2 F2400
M204 P800
;TYPE:Solid infill
;WIDTH:0.420173
G1 F1200
G1 X134.27 Y57.443 E.0263
G1 X134.27 Y57.977 E.01674
G1 X133.313 Y57.02 E.04244
G1 X132.779 Y57.02 E.01674
G1 X134.27 Y58.51 E.06611
G1 X134.27 Y59.044 E.01674
G1 X132.246 Y57.02 E.08978
G1 X131.712 Y57.02 E.01674
G1 X134.27 Y59.577 E.11345
G1 X134.27 Y60.111 E.01674
G1 X131.179 Y57.02 E.13712
G1 X130.645 Y57.02 E.01674
G1 X134.27 Y60.644 E.16078
G1 X134.27 Y61.178 E.01674
G1 X130.112 Y57.02 E.18445
G1 X129.578 Y57.02 E.01674
G1 X134.27 Y61.711 E.20812
G1 X134.27 Y62.245 E.01674
G1 X129.045 Y57.02 E.23179
G1 X128.511 Y57.02 E.01674
G1 X134.27 Y62.778 E.25546
G1 X134.27 Y63.312 E.01674
G1 X127.978 Y57.02 E.27912
G1 X127.444 Y57.02 E.01674
G1 X134.27 Y63.845 E.30279
G1 X134.27 Y64.379 E.01674
G1 X126.911 Y57.02 E.32646
G1 X126.377 Y57.02 E.01674
G1 X134.27 Y64.912 E.35013
G1 X134.27 Y65.446 E.01674
G1 X125.844 Y57.02 E.3738
G1 X125.31 Y57.02 E.01674
G1 X134.27 Y65.979 E.39746
G1 X134.27 Y66.513 E.01674
G1 X124.777 Y57.02 E.42113
G1 X124.243 Y57.02 E.01674
G1 X134.27 Y67.046 E.4448
G1 X134.27 Y67.58 E.01674
G1 X123.709 Y57.02 E.46847
G1 X123.176 Y57.02 E.01674
G1 X134.27 Y68.113 E.49213
G1 X134.27 Y68.647 E.01674
G1 X122.642 Y57.02 E.5158
G1 X122.109 Y57.02 E.01674
G1 X134.27 Y69.181 E.53947
G1 X134.27 Y69.714 E.01674
G1 X121.575 Y57.02 E.56314
G1 X121.042 Y57.02 E.01674
G1 X134.27 Y70.248 E.58681
G1 X134.27 Y70.781 E.01674
G1 X120.508 Y57.02 E.61047
G1 X119.975 Y57.02 E.01674
G1 X134.27 Y71.315 E.63414
G1 X134.27 Y71.848 E.01674
G1 X119.441 Y57.02 E.65781
G1 X118.908 Y57.02 E.01674
G1 X134.27 Y72.382 E.68148
G1 X134.27 Y72.915 E.01674
G1 X118.374 Y57.02 E.70515
G1 X117.841 Y57.02 E.01674
G1 X134.27 Y73.449 E.72881
G1 X134.27 Y73.982 E.01674
G1 X117.307 Y57.02 E.75248
G1 X116.774 Y57.02 E.01674
G1 X134.27 Y74.516 E.77615
G1 X134.27 Y75.049 E.01674
G1 X116.24 Y57.02 E.79982
G1 X115.707 Y57.02 E.01674
G1 X134.27 Y75.583 E.82349
G1 X134.27 Y76.116 E.01674
G1 X115.173 Y57.02 E.84715
G1 X114.64 Y57.02 E.01674
G1 X134.27 Y76.65 E.87082
G1 X134.27 Y77.183 E.01674
G1 X114.106 Y57.02 E.89449
G1 X113.573 Y57.02 E.01674
G1 X134.27 Y77.717 E.91816
G1 X134.27 Y78.25 E.01674
G1 X113.039 Y57.02 E.94182
G1 X112.506 Y57.02 E.01674
G1 X134.27 Y78.784 E.96549
G1 X134.27 Y79.317 E.01674
G1 X111.972 Y57.02 E.98916
G1 X111.439 Y57.02 E.01674
G1 X134.27 Y79.851 E1.01283
G1 X134.27 Y80.384 E.01674
G1 X110.905 Y57.02 E1.0365
G1 X110.372 Y57.02 E.01674
G1 X134.27 Y80.918 E1.06016
G1 X134.27 Y81.451 E.01674
G1 X109.838 Y57.02 E1.08383
G1 X109.305 Y57.02 E.01674
G1 X134.27 Y81.985 E1.1075
G1 X134.27 Y82.518 E.01674
G1 X108.771 Y57.02 E1.13117
G1 X108.238 Y57.02 E.01674
G1 X134.27 Y83.052 E1.15484
G1 X134.27 Y83.585 E.01674
G1 X107.704 Y57.02 E1.1785
G1 X107.17 Y57.02 E.01674
G1 X134.27 Y84.119 E1.20217
G1 X134.27 Y84.652 E.01674
M73 P1 R113
G1 X106.637 Y57.02 E1.22584
G1 X106.103 Y57.02 E.01674
G1 X134.27 Y85.186 E1.24951
G1 X134.27 Y85.72 E.01674
G1 X105.57 Y57.02 E1.27317
G1 X105.036 Y57.02 E.01674
G1 X134.27 Y86.253 E1.29684
G1 X134.27 Y86.787 E.01674
G1 X104.503 Y57.02 E1.32051
G1 X103.969 Y57.02 E.01674
M73 P2 R113
G1 X134.27 Y87.32 E1.34418
G1 X134.27 Y87.854 E.01674
G1 X103.436 Y57.02 E1.36785
G1 X102.902 Y57.02 E.01674
G1 X134.27 Y88.387 E1.39151
G1 X134.27 Y88.921 E.01674
G1 X102.369 Y57.02 E1.41518
G1 X101.835 Y57.02 E.01674
G1 X134.27 Y89.454 E1.43885
G1 X134.27 Y89.988 E.01674
G1 X101.302 Y57.02 E1.46252
G1 X100.768 Y57.02 E.01674
G1 X134.27 Y90.521 E1.48619
G1 X134.27 Y91.055 E.01674
G1 X100.235 Y57.02 E1.50985
G1 X99.701 Y57.02 E.01674
G1 X134.27 Y91.588 E1.53352
G1 X134.27 Y92.122 E.01674
G1 X99.168 Y57.02 E1.55719
G1 X98.634 Y57.02 E.01674
G1 X134.27 Y92.655 E1.58086
G1 X134.27 Y93.189 E.01674
G1 X98.101 Y57.02 E1.60453
G1 X97.567 Y57.02 E.01674
G1 X102.647 Y62.1 E.22536
G1 X102.42 Y62.056 E.00726
G1 X102.051 Y62.037 E.01159
G1 X97.034 Y57.02 E.22258
G1 X96.5 Y57.02 E.01674
G1 X101.569 Y62.088 E.22485
G1 X101.271 Y62.146 E.00951
G1 X101.141 Y62.195 E.00435
G1 X95.967 Y57.02 E.22956
G1 X95.433 Y57.02 E.01674
G1 X100.76 Y62.347 E.23632
G1 X100.432 Y62.552 E.01214
G1 X94.9 Y57.02 E.24543
G1 X94.366 Y57.02 E.01674
G1 X100.134 Y62.787 E.25586
G1 X99.874 Y63.061 E.01184
G1 X93.833 Y57.02 E.26802
G1 X93.299 Y57.02 E.01674
G1 X99.658 Y63.379 E.2821
G1 X99.469 Y63.723 E.01233
G1 X92.766 Y57.02 E.29739
G1 X92.232 Y57.02 E.01674
G1 X99.335 Y64.123 E.3151
G1 X99.294 Y64.244 E.004
G1 X99.257 Y64.578 E.01057
G1 X91.699 Y57.02 E.33531
G1 X91.165 Y57.02 E.01674
G1 X99.444 Y65.299 E.36727
M204 P1000
G1 E-2.24 F4200
;WIPE_START
G1 F7200
G1 X98.28 Y64.135 E-.912
;WIPE_END
G1 E-.048 F4200
G1 Z.4 F720
G1 X104.566 Y64.019 F9000
G1 Z.2 F720
G1 E3.2 F2400
M204 P800
G1 F1200
G1 X134.27 Y93.722 E1.31771
G1 X134.27 Y94.256 E.01674
G1 X104.856 Y64.843 E1.30483
G1 X104.857 Y65.132 E.00908
G1 X104.814 Y65.333 E.00646
G1 X134.27 Y94.789 E1.30672
G1 X134.27 Y95.323 E.01674
G1 X104.716 Y65.769 E1.31105
G1 X104.548 Y66.135 E.01261
G1 X134.27 Y95.856 E1.31851
G1 X134.27 Y96.39 E.01674
G1 X104.346 Y66.466 E1.32747
